archdroid-icon-theme/Archdroid-Grey/apps/scalable/system-file-manager-linux-mint.svg

<?xml version="1.0" encoding="UTF-8" standalone="no"?>
<svg
   xmlns:dc="http://purl.org/dc/elements/1.1/"
   xmlns:cc="http://creativecommons.org/ns#"
   xmlns:rdf="http://www.w3.org/1999/02/22-rdf-syntax-ns#"
   xmlns:svg="http://www.w3.org/2000/svg"
   xmlns="http://www.w3.org/2000/svg"
   xmlns:sodipodi="http://sodipodi.sourceforge.net/DTD/sodipodi-0.dtd"
   xmlns:inkscape="http://www.inkscape.org/namespaces/inkscape"
   fill="#9E9E9E"
   width="48"
   height="48"
   viewBox="0 0 48 48"
   id="svg2"
   version="1.1"
   inkscape:version="0.91 r13725"
   sodipodi:docname="system-file-manager-linux-mint.svg">
  <metadata
     id="metadata10">
    <rdf:RDF>
      <cc:Work
         rdf:about="">
        <dc:format>image/svg+xml</dc:format>
        <dc:type
           rdf:resource="http://purl.org/dc/dcmitype/StillImage" />
      </cc:Work>
    </rdf:RDF>
  </metadata>
  <defs
     id="defs8" />
  <sodipodi:namedview
     pagecolor="#ffffff"
     bordercolor="#666666"
     borderopacity="1"
     objecttolerance="10"
     gridtolerance="10"
     guidetolerance="10"
     inkscape:pageopacity="0"
     inkscape:pageshadow="2"
     inkscape:window-width="1366"
     inkscape:window-height="713"
     id="namedview6"
     showgrid="false"
     inkscape:snap-bbox="true"
     inkscape:snap-bbox-edge-midpoints="false"
     inkscape:snap-bbox-midpoints="true"
     inkscape:snap-object-midpoints="true"
     inkscape:zoom="8.707238168524984"
     inkscape:cx="17.94331702353164"
     inkscape:cy="26.09556911581165"
     inkscape:window-x="0"
     inkscape:window-y="30"
     inkscape:window-maximized="1"
     inkscape:current-layer="svg2"
     inkscape:bbox-nodes="true"
     inkscape:bbox-paths="true" />
  <path
     d="M 20 5 L 16 9 L 16 13 L 8 13 C 5.79 13 4.019531250000001 14.79 4.01953125 17 L 4 39 C 4 41.21 5.789999999999999 43 8 43 L 40 43 C 42.21 43 44 41.21 44 39 L 44 17 C 44 14.79 42.21 13 40 13 L 32 13 L 32 9 L 28 5 L 20 5 z M 20 9 L 28 9 L 28 13 L 20 13 L 20 9 z M 14.375 20.75 L 24.291015625 20.796875 L 27.392578125 20.802734375 C 31.10465269643256 20.802734375 34.3203125 23.61156689345641 34.3203125 27.3203125 L 34.3203125 38.630859375 L 23.658203125 38.630859375 C 19.94946100245942 38.630859375 16.73046875 35.81869963365613 16.73046875 32.11328125 L 16.7265625 27.61328125 L 16.7265625 26.466796875 L 14.375 26.466796875 L 14.375 20.75 z M 15.890625 22.271484375 L 15.890625 24.955078125 L 16.830078125 24.955078125 C 17.46876555926918 24.955078125 18.23828125 25.55672487364103 18.23828125 26.4375 L 18.244140625 32.109375 C 18.244140625 34.87423799141828 20.66986921164796 37.11523437499999 23.658203125 37.115234375 L 31.03515625 37.115234375 C 31.98104390886532 37.115234375 32.80859375 36.51630911592527 32.80859375 35.595703125 L 32.80859375 27.3203125 C 32.80859375 24.5554512505832 30.38425145525006 22.314453125 27.392578125 22.314453125 L 24.287109375 22.314453125 L 24.287109375 22.306640625 L 15.890625 22.271484375 z M 19.693359375 23.953125 L 21.234375 23.953125 L 21.234375 31.869140625 C 21.234375 32.92801972792217 21.95816360736508 33.751953125 22.8046875 33.751953125 L 28.06640625 33.771484375 C 29.16336724797059 33.77148437499999 30.017578125 33.01575228710238 30.017578125 32.119140625 L 30.0078125 27.916015625 C 30.0078125 27.6432530282897 29.91936340201249 27.43110619872833 29.724609375 27.234375 C 29.52921951743572 27.03701493872592 29.32139804215313 26.947265625 29.052734375 26.947265625 C 28.77843707495786 26.947265625 28.57472463993618 27.03656550233589 28.37890625 27.234375 C 28.18415048098599 27.43110619872833 28.095703125 27.64325302828969 28.095703125 27.916015625 L 28.095703125 31.513671875 L 26.46484375 31.513671875 L 26.46484375 27.916015625 C 26.46484375 27.6432530282897 26.37444152701249 27.43110619872833 26.1796875 27.234375 C 25.98386736806231 27.03656550233591 25.78015144903765 26.947265625 25.505859375 26.947265625 C 25.23719744984836 26.947265625 25.03133084156732 27.0370149387259 24.8359375 27.234375 C 24.64118521498902 27.43110619872833 24.55078125 27.64325302828969 24.55078125 27.916015625 L 24.55078125 31.513671875 L 22.919921875 31.513671875 L 22.919921875 27.916015625 C 22.91992013299847 27.2043714254171 23.18355047404975 26.57347013334795 23.68359375 26.068359375 C 24.18388613216644 25.56297860641775 24.80508874885345 25.302734375 25.505859375 25.302734375 C 26.19343782369802 25.302734375 26.79207961487547 25.55973654219861 27.27734375 26.02734375 C 27.76403110035966 25.55896483552888 28.36487198005554 25.302734375 29.052734375 25.302734375 C 29.75350151714351 25.302734375 30.37666596883804 25.56297860641776 30.876953125 26.068359375 C 31.37700336895628 26.57347013334797 31.640625 27.2043714254171 31.640625 27.916015625 L 31.646484375 32.40625 C 31.56938861409435 33.15808043245752 31.25163526592623 33.82528491616342 30.708984375 34.3828125 L 30.705078125 34.3828125 C 30.06703348928868 35.03238221771307 29.27717769823774 35.3671875 28.376953125 35.3671875 L 22.517578125 35.3671875 C 21.80057204476392 35.29050807745565 21.16344183849358 34.95149674353429 20.6328125 34.427734375 C 20.01199277523688 33.80931687032156 19.693359375 33.04396973282595 19.693359375 32.171875 L 19.693359375 23.953125 z "
     id="path4250" />
</svg>

<svg xmlns="http://www.w3.org/2000/svg" fill="#9E9E9E" viewBox="0 0 48 48"><path d="m20 5l-4 4v4h-8c-2.21 0-3.98 1.79-3.98 4l-.02 22c0 2.21 1.79 4 4 4h32c2.21 0 4-1.79 4-4v-22c0-2.21-1.79-4-4-4h-8v-4l-4-4h-8m0 4h8v4h-8v-4m-5.625 11.75l9.916.047 3.102.006c3.712 0 6.928 2.809 6.928 6.518v11.311h-10.662c-3.709 0-6.928-2.812-6.928-6.518l-.004-4.5v-1.146h-2.352v-5.717m1.516 1.521v2.684h.939c.639 0 1.408.602 1.408 1.482l.006 5.672c0 2.765 2.426 5.01 5.414 5.01h7.377c.946 0 1.773-.599 1.773-1.52v-8.275c0-2.765-2.424-5.01-5.416-5.01h-3.105v-.008l-8.396-.035m3.803 1.682h1.541v7.916c0 1.059.724 1.883 1.57 1.883l5.262.02c1.097 0 1.951-.756 1.951-1.652l-.01-4.203c0-.273-.088-.485-.283-.682-.195-.197-.403-.287-.672-.287-.274 0-.478.089-.674.287-.195.197-.283.409-.283.682v3.598h-1.631v-3.598c0-.273-.09-.485-.285-.682-.196-.198-.4-.287-.674-.287-.269 0-.475.09-.67.287-.195.197-.285.409-.285.682v3.598h-1.631v-3.598c0-.712.264-1.343.764-1.848.5-.505 1.121-.766 1.822-.766.688 0 1.286.257 1.771.725.487-.468 1.088-.725 1.775-.725.701 0 1.324.26 1.824.766.5.505.764 1.136.764 1.848l.006 4.49c-.077.752-.395 1.419-.938 1.977h-.004c-.638.65-1.428.984-2.328.984h-5.859c-.717-.077-1.354-.416-1.885-.939-.621-.618-.939-1.384-.939-2.256v-8.219"/></svg>
